apps/scalable/maps.svg

<?xml version="1.0" encoding="UTF-8" standalone="no"?>
<!-- Created with Inkscape (http://www.inkscape.org/) -->

<svg
   xmlns:dc="http://purl.org/dc/elements/1.1/"
   xmlns:cc="http://creativecommons.org/ns#"
   xmlns:rdf="http://www.w3.org/1999/02/22-rdf-syntax-ns#"
   xmlns:svg="http://www.w3.org/2000/svg"
   xmlns="http://www.w3.org/2000/svg"
   xmlns:xlink="http://www.w3.org/1999/xlink"
   xmlns:sodipodi="http://sodipodi.sourceforge.net/DTD/sodipodi-0.dtd"
   xmlns:inkscape="http://www.inkscape.org/namespaces/inkscape"
   width="64"
   height="64"
   version="1.1"
   id="svg154"
   sodipodi:docname="maps.svg"
   inkscape:version="0.92.3 (2405546, 2018-03-11)">
  <sodipodi:namedview
     pagecolor="#ffffff"
     bordercolor="#666666"
     borderopacity="1"
     objecttolerance="10"
     gridtolerance="10"
     guidetolerance="10"
     inkscape:pageopacity="0"
     inkscape:pageshadow="2"
     inkscape:window-width="1366"
     inkscape:window-height="715"
     id="namedview156"
     showgrid="false"
     inkscape:zoom="8.234375"
     inkscape:cx="32"
     inkscape:cy="32"
     inkscape:window-x="0"
     inkscape:window-y="27"
     inkscape:window-maximized="1"
     inkscape:current-layer="svg154" />
  <defs
     id="defs54">
    <linearGradient
       id="b">
      <stop
         stop-color="#ff8313"
         offset="0"
         id="stop2" />
      <stop
         stop-color="#fffc3f"
         offset="1"
         id="stop4" />
    </linearGradient>
    <linearGradient
       id="i"
       x1="12.829"
       x2="62.386"
       y1="44.289"
       y2="44.289"
       gradientUnits="userSpaceOnUse">
      <stop
         stop-color="#ffffff"
         offset="0"
         id="stop7" />
      <stop
         stop-color="#5dbdeb"
         offset="1"
         id="stop9" />
    </linearGradient>
    <linearGradient
       id="d"
       x1="-11.778"
       x2="14.319"
       y1="24.579"
       y2="24.579"
       gradientTransform="matrix(1.2975 -.036237 0 1 -1.4875 1.1596)"
       gradientUnits="userSpaceOnUse">
      <stop
         stop-color="#009fc4"
         offset="0"
         id="stop12" />
      <stop
         stop-color="#20fcff"
         offset="1"
         id="stop14" />
    </linearGradient>
    <linearGradient
       id="j"
       x1="34.581"
       x2="43.465"
       y1="30.416"
       y2="30.738"
       gradientTransform="matrix(1.2975 -.036237 0 1 -1.4875 1.1596)"
       gradientUnits="userSpaceOnUse">
      <stop
         stop-color="#159a1b"
         offset="0"
         id="stop17" />
      <stop
         stop-color="#42ff81"
         offset="1"
         id="stop19" />
    </linearGradient>
    <linearGradient
       id="w"
       x1="3.745"
       x2="-77.759"
       y1="26"
       y2="26"
       gradientUnits="userSpaceOnUse"
       xlink:href="#i"
       gradientTransform="matrix(0.91549,0,0,-0.91549,21.248,63.211)" />
    <linearGradient
       id="v"
       x1="39.801"
       x2="1.0337"
       y1="34.5"
       y2="34.146"
       gradientUnits="userSpaceOnUse"
       xlink:href="#i" />
    <linearGradient
       id="u"
       x1="69.721"
       x2="54.321"
       y1="51.214"
       y2="51.214"
       gradientUnits="userSpaceOnUse"
       xlink:href="#i"
       gradientTransform="matrix(0.91549,0.24531,0,-0.91549,-13.907,46.604)" />
    <linearGradient
       id="t"
       x1="-31.114"
       x2="-3.1456"
       y1="32.946"
       y2="32.946"
       gradientUnits="userSpaceOnUse"
       xlink:href="#b"
       gradientTransform="matrix(0.91549,0,0,-0.91549,21.248,63.211)" />
    <linearGradient
       id="s"
       x1="21.199"
       x2="39.801"
       y1="44.503"
       y2="43.186"
       gradientUnits="userSpaceOnUse"
       xlink:href="#b" />
    <linearGradient
       id="r"
       x1="56.039"
       x2="68.596"
       y1="33"
       y2="33"
       gradientUnits="userSpaceOnUse"
       xlink:href="#b"
       gradientTransform="matrix(0.91549,0.24531,0,-0.91549,-13.907,46.604)" />
    <linearGradient
       id="q"
       x1="50.036"
       x2="1.7869"
       y1="57.177"
       y2="57.135"
       gradientUnits="userSpaceOnUse"
       xlink:href="#b" />
    <linearGradient
       id="p"
       x1="12.430587"
       x2="23.580555"
       y1="37.995651"
       y2="37.39571"
       gradientUnits="userSpaceOnUse"
       xlink:href="#b"
       gradientTransform="matrix(0.51191,-0.24531,0,-0.91549,22.297,66.13)" />
    <linearGradient
       id="o"
       x1="27.49"
       x2="-24.034"
       y1="20.691"
       y2="26.777"
       gradientUnits="userSpaceOnUse"
       xlink:href="#j"
       gradientTransform="matrix(0.51191,-0.24531,0,-0.91549,22.297,66.13)" />
    <linearGradient
       id="n"
       x1="57"
       x2="5.231"
       y1="19.996"
       y2="19.951"
       gradientUnits="userSpaceOnUse"
       xlink:href="#j" />
    <linearGradient
       id="m"
       x1="18.449"
       x2="28.355"
       y1="25.642"
       y2="25.613"
       gradientUnits="userSpaceOnUse"
       xlink:href="#j" />
    <linearGradient
       id="l"
       x1="38.512"
       x2="71.31"
       y1="17.127"
       y2="17.127"
       gradientUnits="userSpaceOnUse"
       xlink:href="#j"
       gradientTransform="matrix(0.91549,0.24531,0,-0.91549,-13.907,46.604)" />
    <linearGradient
       id="k"
       x1="21.199"
       x2="28.756"
       y1="17.772"
       y2="17.313"
       gradientUnits="userSpaceOnUse"
       xlink:href="#d" />
    <linearGradient
       id="h"
       x1="21.571"
       x2="-21.274"
       y1="14.352"
       y2="16.499"
       gradientUnits="userSpaceOnUse"
       xlink:href="#d"
       gradientTransform="matrix(0.51191,-0.24531,0,-0.91549,22.297,66.13)" />
    <linearGradient
       id="g"
       x1="57.703"
       x2="-1.1327"
       y1="10.011"
       y2="10.658"
       gradientUnits="userSpaceOnUse"
       xlink:href="#d" />
    <linearGradient
       id="f"
       x1="-30.595"
       x2="24.044"
       y1="37.652"
       y2="33.652"
       gradientUnits="userSpaceOnUse"
       xlink:href="#i"
       gradientTransform="matrix(0.51191,-0.24531,0,-0.91549,22.297,66.13)" />
    <linearGradient
       id="e"
       x1="-9.1901"
       x2="54.784"
       y1="35.079"
       y2="32.467"
       gradientUnits="userSpaceOnUse"
       xlink:href="#i" />
    <radialGradient
       id="x"
       cx="31.826"
       cy="27.069"
       r="32"
       gradientTransform="matrix(1 0 0 .96875 0 1.0312)"
       gradientUnits="userSpaceOnUse">
      <stop
         stop-color="#9e6431"
         offset="0"
         id="stop39" />
      <stop
         stop-color="#6f5c53"
         offset="1"
         id="stop41" />
    </radialGradient>
    <radialGradient
       id="a"
       cx="76.364"
       cy="206.79"
       r="32"
       gradientTransform="matrix(-1.6199e-4,20.088,-1.4162,0,304.34,-1517.8)"
       gradientUnits="userSpaceOnUse">
      <stop
         stop-color="#d4440c"
         stop-opacity=".16287"
         offset="0"
         id="stop44" />
      <stop
         stop-color="#722834"
         stop-opacity=".19156"
         offset="1"
         id="stop46" />
    </radialGradient>
    <radialGradient
       id="c"
       cx="67.258"
       cy="99.077"
       r="32"
       fx="65.482"
       fy="65.879"
       gradientTransform="matrix(1.2228 -1.2228 1.8051 1.8051 -181.08 -12.07)"
       gradientUnits="userSpaceOnUse">
      <stop
         stop-color="#471370"
         stop-opacity=".49705"
         offset="0"
         id="stop49" />
      <stop
         stop-color="#762222"
         stop-opacity="0"
         offset="1"
         id="stop51" />
    </radialGradient>
  </defs>
  <metadata
     id="metadata56">
    <rdf:RDF>
      <cc:Work
         rdf:about="">
        <dc:format>image/svg+xml</dc:format>
        <dc:type
           rdf:resource="http://purl.org/dc/dcmitype/StillImage" />
        <dc:title></dc:title>
      </cc:Work>
    </rdf:RDF>
  </metadata>
  <path
     d="M 4.9451845,56.561265 V 1.746659 L 26.185845,7.4380143 V 62.252619 Z"
     style="fill:#4d4d4d;fill-opacity:1;stroke-width:1.09227073;paint-order:normal"
     id="path102"
     inkscape:connector-curvature="0" />
  <path
     d="M 11.993316,58.44997 25.743788,48.383839 C 18.999306,46.13313 13.557817,39.316704 12.997107,32.453345 L 12.9391,32.437822 V 32.230385 L 4.9453135,38.064369 V 31.611777 L 12.939113,25.777788 V 22.160019 L 4.9453205,20.018138 v -4.567885 l 7.9937955,2.141879 V 3.8884823 l 4.567883,1.2239644 V 18.816096 l 3.63558,0.974149 5.042944,-3.680572 v 9.617566 C 24.3747,25.330975 22.710848,25.490897 21.332146,26.104053 l -2.116644,1.545088 c -1.072925,1.210147 -1.708503,2.873884 -1.708503,4.87062 0,4.91824 3.822635,9.900661 8.678524,11.439123 V 54.51983 l -7.536552,5.517092 v 0.196281 z"
     dominant-baseline="auto"
     style="color:#000000;font-variant-ligatures:normal;font-variant-position:normal;font-variant-caps:normal;font-variant-numeric:normal;font-variant-alternates:normal;font-feature-settings:normal;text-indent:0;text-decoration:none;text-decoration-line:none;text-decoration-style:solid;text-decoration-color:#000000;text-transform:none;text-orientation:mixed;dominant-baseline:auto;white-space:normal;shape-padding:0;isolation:auto;mix-blend-mode:normal;solid-color:#000000;fill:#000000;fill-opacity:1;stroke-width:1.09227073;paint-order:normal;color-rendering:auto;image-rendering:auto;shape-rendering:auto"
     id="path104"
     inkscape:connector-curvature="0" />
  <path
     d="M 26.033719,62.252711 V 7.4381063 L 37.910753,1.7465682 V 56.561174 Z"
     style="fill:#1a1a1a;fill-opacity:1;stroke-width:1.09231436;paint-order:normal"
     id="path108"
     inkscape:connector-curvature="0" />
  <path
     d="m 33.848552,58.507802 c -0.09508,-0.75296 -0.0031,-1.666921 -0.03992,-2.470029 L 33.489367,36.215416 c 0.313101,-1.034462 0.825453,-1.924775 1.217204,-2.902864 l 3.20399,-7.017743 v 30.266799 z"
     style="fill:#808080;fill-opacity:1;stroke-width:1.09231436;paint-order:normal"
     id="path110"
     inkscape:connector-curvature="0" />
  <path
     d="m 32.846028,58.988217 c -1.00278,-1.520425 -1.058205,-3.839359 0.780756,-7.310702 1.936978,-3.656495 3.416372,-2.878579 4.284034,-8.090649 V 56.5608 Z"
     style="fill:#333333;fill-opacity:1;stroke-width:1.09231436;paint-order:normal"
     id="path112"
     inkscape:connector-curvature="0" />
  <path
     d="M 31.397796,59.682216 V 42.449875 c -0.117606,0.245479 -0.236467,0.488193 -0.36043,0.72363 L 26.033751,54.519634 V 43.958688 c 0.08524,-0.03341 0.169349,-0.05888 0.255667,-0.100202 1.118806,-0.536136 2.146107,-1.666729 2.984459,-3.145408 l 1.164844,-2.641381 c 0.602157,-1.787851 0.959101,-3.796219 0.959101,-5.796949 0,-5.072639 -2.271961,-8.047035 -5.108404,-6.687795 -0.08608,0.04123 -0.1707,0.09221 -0.255667,0.140364 V 16.10974 L 30.892736,5.1093927 34.50827,3.3768083 26.803522,20.819436 c 3.811252,-1.368097 6.87208,2.646256 7.122389,9.345014 l 3.984681,-9.035609 v 6.459215 l -3.958499,8.976242 v 21.893866 z"
     dominant-baseline="auto"
     style="color:#000000;font-variant-ligatures:normal;font-variant-position:normal;font-variant-caps:normal;font-variant-numeric:normal;font-variant-alternates:normal;font-feature-settings:normal;text-indent:0;text-decoration:none;text-decoration-line:none;text-decoration-style:solid;text-decoration-color:#000000;text-transform:none;text-orientation:mixed;dominant-baseline:auto;white-space:normal;shape-padding:0;isolation:auto;mix-blend-mode:normal;solid-color:#000000;fill:#000000;fill-opacity:1;stroke-width:1.09231436;paint-order:normal;color-rendering:auto;image-rendering:auto;shape-rendering:auto"
     id="path114"
     inkscape:connector-curvature="0" />
  <path
     d="M 37.814158,56.561895 V 1.747289 L 59.054816,7.4388276 V 62.253432 Z"
     style="fill:#4d4d4d;fill-opacity:1;stroke-width:1.09227073;paint-order:normal"
     id="path138"
     inkscape:connector-curvature="0" />
  <path
     d="m 40.558311,57.297205 c -0.170085,-0.844111 -0.0057,-1.66992 -0.07138,-2.508278 V 39.082256 c 0.212897,-0.570179 1.057626,0.05256 1.556848,0.07592 l 16.924009,4.53487 c 0.03597,0.02183 0.05746,0.0483 0.08696,0.07236 v 18.48737 z"
     style="fill:#808080;stroke-width:1.09227073;paint-order:normal"
     id="path140"
     inkscape:connector-curvature="0" />
  <path
     d="M 37.814158,56.561895 V 1.747289 l 2.968665,0.795469 V 17.38838 l 18.271537,4.895949 v 4.567883 L 40.782823,21.956265 v 12.56168 l 18.271537,4.895946 v 4.567886 L 40.782823,39.08583 v 18.271534 z"
     dominant-baseline="auto"
     style="color:#000000;font-variant-ligatures:normal;font-variant-position:normal;font-variant-caps:normal;font-variant-numeric:normal;font-variant-alternates:normal;font-feature-settings:normal;text-indent:0;text-decoration:none;text-decoration-line:none;text-decoration-style:solid;text-decoration-color:#000000;text-transform:none;text-orientation:mixed;dominant-baseline:auto;white-space:normal;shape-padding:0;isolation:auto;mix-blend-mode:normal;solid-color:#000000;fill:#000000;stroke-width:1.09227073;paint-order:normal;color-rendering:auto;image-rendering:auto;shape-rendering:auto"
     id="path142"
     inkscape:connector-curvature="0" />
  <path
     d="m 18.800211,25.696524 c -6.341626,0 -11.4830411,5.494376 -11.4830411,12.272472 0,0.4236 0.020604,0.865794 0.059806,1.278346 0.00172,0.02112 -0.00195,0.04276 0,0.0639 0.039033,0.390771 0.1068639,0.771573 0.1794172,1.150494 0.9885795,6.30525 5.5310979,12.72185 11.2430379,17.961315 5.71231,-5.238567 10.255107,-11.65507 11.243035,-17.961315 0.07252,-0.378932 0.140376,-0.759733 0.179417,-1.150494 0.0021,-0.02114 -0.0019,-0.04283 0,-0.0639 0.03922,-0.412543 0.05979,-0.854735 0.05979,-1.278346 0,-6.777598 -5.14095,-12.272472 -11.483043,-12.272472 z m 0,7.286531 c 2.566382,0 4.664848,2.242727 4.664848,4.985541 0,2.742817 -2.098466,4.985543 -4.664848,4.985543 -2.566381,0 -4.664846,-2.242726 -4.664846,-4.985543 0,-2.742814 2.098465,-4.985541 4.664846,-4.985541 z"
     id="path148"
     inkscape:connector-curvature="0"
     style="fill:#ff0000;stroke-width:0.5;stroke:none;stroke-opacity:1;stroke-miterlimit:4;stroke-dasharray:none" />
</svg>

<?xml version="1.0" encoding="UTF-8" standalone="no"?><!--Created with Inkscape (http://www.inkscape.org/)--><svg xmlns:dc="http://purl.org/dc/elements/1.1/" xmlns:cc="http://creativecommons.org/ns#" xmlns:rdf="http://www.w3.org/1999/02/22-rdf-syntax-ns#" xmlns="http://www.w3.org/2000/svg" width="64" height="64"><defs><linearGradient id="b"><stop stop-color="#ff8313" offset="0"/><stop stop-color="#fffc3f" offset="1"/></linearGradient><linearGradient id="a" x1="12.83" x2="62.39" y1="44.29" y2="44.29" gradientUnits="userSpaceOnUse"><stop stop-color="#fff" offset="0"/><stop stop-color="#5dbdeb" offset="1"/></linearGradient><linearGradient id="d" x1="-11.78" x2="14.32" y1="24.58" y2="24.58" gradientTransform="matrix(1.2975 -.03624 0 1 -1.49 1.16)" gradientUnits="userSpaceOnUse"><stop stop-color="#009fc4" offset="0"/><stop stop-color="#20fcff" offset="1"/></linearGradient><linearGradient id="c" x1="34.58" x2="43.47" y1="30.42" y2="30.74" gradientTransform="matrix(1.2975 -.03624 0 1 -1.49 1.16)" gradientUnits="userSpaceOnUse"><stop stop-color="#159a1b" offset="0"/><stop stop-color="#42ff81" offset="1"/></linearGradient></defs><metadata><rdf:RDF><cc:Work><dc:format>image/svg+xml</dc:format><dc:type rdf:resource="http://purl.org/dc/dcmitype/StillImage"/><dc:title/></cc:Work></rdf:RDF></metadata><path d="M4.95 56.56V1.75l21.24 5.69v54.81z" fill="#4d4d4d"/><path d="M12 58.45l13.74-10.07C19 46.13 13.56 39.32 13 32.45l-.06-.01v-.21l-8 5.83v-6.45l8-5.83v-3.62l-8-2.14v-4.57l8 2.14V3.9L17.5 5.1v13.7l3.63.98 5.05-3.68v9.62a7.77 7.77 0 0 0-4.86.37l-2.11 1.55a7.2 7.2 0 0 0-1.71 4.87c0 4.92 3.82 9.9 8.68 11.44v10.56l-7.54 5.52v.2z" style="font-variant-ligatures:normal;font-variant-position:normal;font-variant-caps:normal;font-variant-numeric:normal;font-variant-alternates:normal;font-feature-settings:normal;text-indent:0;text-decoration-line:none;text-decoration-style:solid;text-decoration-color:#000;text-transform:none;text-orientation:mixed;shape-padding:0;isolation:auto;mix-blend-mode:normal" color="#000" white-space="normal"/><path d="M26.03 62.25V7.44l11.88-5.7v54.82z" fill="#1a1a1a"/><path d="M33.85 58.5c-.1-.75 0-1.66-.04-2.46l-.32-19.82c.31-1.04.82-1.93 1.22-2.9l3.2-7.03v30.27z" fill="gray"/><path d="M32.85 58.99c-1-1.52-1.06-3.84.78-7.31 1.93-3.66 3.41-2.88 4.28-8.1v12.98z" fill="#333"/><path d="M31.4 59.68V42.45l-.36.72-5 11.35V43.96l.25-.1a7.46 7.46 0 0 0 2.98-3.15l1.17-2.64c.6-1.79.96-3.8.96-5.8 0-5.07-2.27-8.04-5.11-6.68l-.26.14V16.1l4.86-11 3.62-1.73-7.7 17.44c3.8-1.37 6.87 2.65 7.12 9.34l3.98-9.03v6.46l-3.96 8.97v21.9z" style="font-variant-ligatures:normal;font-variant-position:normal;font-variant-caps:normal;font-variant-numeric:normal;font-variant-alternates:normal;font-feature-settings:normal;text-indent:0;text-decoration-line:none;text-decoration-style:solid;text-decoration-color:#000;text-transform:none;text-orientation:mixed;shape-padding:0;isolation:auto;mix-blend-mode:normal" color="#000" white-space="normal"/><path d="M37.81 56.56V1.75l21.24 5.69v54.81z" fill="#4d4d4d"/><path d="M40.56 57.3c-.17-.85 0-1.67-.07-2.51v-15.7c.21-.58 1.05.04 1.55.07l16.93 4.53.08.08v18.48z" fill="gray"/><path d="M37.81 56.56V1.75l2.97.8v14.84l18.27 4.9v4.56l-18.27-4.9v12.57l18.27 4.9v4.56l-18.27-4.9v18.28z" style="font-variant-ligatures:normal;font-variant-position:normal;font-variant-caps:normal;font-variant-numeric:normal;font-variant-alternates:normal;font-feature-settings:normal;text-indent:0;text-decoration-line:none;text-decoration-style:solid;text-decoration-color:#000;text-transform:none;text-orientation:mixed;shape-padding:0;isolation:auto;mix-blend-mode:normal" color="#000" white-space="normal"/><path d="M18.8 25.7c-6.34 0-11.48 5.5-11.48 12.27 0 .42.02.86.06 1.28v.06c.04.4.1.77.18 1.15.98 6.3 5.53 12.72 11.24 17.96 5.71-5.24 10.25-11.65 11.24-17.96.07-.38.14-.76.18-1.15v-.06c.04-.42.06-.86.06-1.28 0-6.78-5.14-12.27-11.48-12.27zm0 7.28c2.57 0 4.67 2.25 4.67 4.99s-2.1 4.98-4.67 4.98-4.66-2.24-4.66-4.98 2.1-4.99 4.66-4.99z" fill="red"/></svg>
